neru-light-classic/32x32/apps/com.github.nick92.tranqil.svg

<?xml version="1.0" encoding="UTF-8" standalone="no"?>
<!-- Created with Inkscape (http://www.inkscape.org/) -->

<svg
   xmlns:dc="http://purl.org/dc/elements/1.1/"
   xmlns:cc="http://creativecommons.org/ns#"
   xmlns:rdf="http://www.w3.org/1999/02/22-rdf-syntax-ns#"
   xmlns:svg="http://www.w3.org/2000/svg"
   xmlns="http://www.w3.org/2000/svg"
   xmlns:sodipodi="http://sodipodi.sourceforge.net/DTD/sodipodi-0.dtd"
   xmlns:inkscape="http://www.inkscape.org/namespaces/inkscape"
   height="32"
   width="32"
   version="1.1"
   viewBox="0 0 32 32.000001"
   id="svg20"
   sodipodi:docname="com.github.nick92.tranqil.svg"
   inkscape:version="0.92.1 r">
  <metadata
     id="metadata26">
    <rdf:RDF>
      <cc:Work
         rdf:about="">
        <dc:format>image/svg+xml</dc:format>
        <dc:type
           rdf:resource="http://purl.org/dc/dcmitype/StillImage" />
      </cc:Work>
    </rdf:RDF>
  </metadata>
  <defs
     id="defs24" />
  <sodipodi:namedview
     pagecolor="#ffffff"
     bordercolor="#666666"
     borderopacity="1"
     objecttolerance="10"
     gridtolerance="10"
     guidetolerance="10"
     inkscape:pageopacity="0"
     inkscape:pageshadow="2"
     inkscape:window-width="640"
     inkscape:window-height="480"
     id="namedview22"
     showgrid="false"
     inkscape:zoom="6.3197669"
     inkscape:cx="0.6883275"
     inkscape:cy="14.572984"
     inkscape:current-layer="svg20" />
  <rect
     style="opacity:1;fill:#834366;fill-opacity:1;fill-rule:evenodd;stroke:none;stroke-width:1.03534329;stroke-linecap:round;stroke-linejoin:bevel;stroke-miterlimit:4;stroke-dasharray:none;stroke-dashoffset:0;stroke-opacity:1"
     id="rect4497-3"
     width="28.203388"
     height="28.203388"
     x="1.8983059"
     y="1.8983059"
     ry="5.575182" />
  <path
     inkscape:connector-curvature="0"
     style="opacity:1;fill:#834366;fill-opacity:1;fill-rule:evenodd;stroke:none;stroke-width:1.03534329;stroke-linecap:round;stroke-linejoin:bevel;stroke-miterlimit:4;stroke-dasharray:none;stroke-dashoffset:0;stroke-opacity:1"
     d="m 7.474609,1.898438 c -3.088651,0 -5.576172,2.4855681 -5.576172,5.5742189 v 5.3359371 c 0.218102,0.205754 0.44667,0.376536 0.644531,0.669922 0.311348,0.461663 0.623318,1.000252 1.019531,1.517578 0.507412,0.637466 1.157949,0.969194 1.701172,1.388672 0.271612,0.20974 0.516493,0.441276 0.703125,0.744141 0.186633,0.302865 0.314484,0.67747 0.353516,1.171875 0.06505,0.936761 0.210279,1.794376 0.539062,2.470703 0.09231,0.189896 0.23771,0.327356 0.361329,0.486328 H 30.101562 V 7.4726569 c 0,-3.0886508 -2.485568,-5.5742189 -5.574219,-5.5742189 z"
     id="rect4497" />
  <circle
     id="circle10"
     r="8.5"
     cx="12.934154"
     cy="19.520157"
     class="st11"
     style="fill:#ff87a3" />
  <path
     inkscape:connector-curvature="0"
     style="opacity:1;fill:#db4b73;fill-opacity:1;fill-rule:evenodd;stroke:none;stroke-width:1.03534329;stroke-linecap:round;stroke-linejoin:bevel;stroke-miterlimit:4;stroke-dasharray:none;stroke-dashoffset:0;stroke-opacity:1"
     d="M 30.101562,21.257813 H 7.220703 c 0.09652,0.124122 0.164613,0.276265 0.283203,0.378906 0.270476,0.234101 0.600578,0.409604 1.003906,0.513672 0.949772,0.247247 2.002958,0.864975 2.978515,1.730469 0.975558,0.865494 1.8742,1.978786 2.511719,3.214844 0.409833,0.780615 0.991357,1.296699 1.660157,1.630859 0.668798,0.33416 1.423482,0.485776 2.179687,0.541016 1.512409,0.110479 3.028651,-0.167969 3.861328,-0.167969 2.962089,0 4.336151,0.0563 5.817089,0.125 1.299969,-0.751841 2.585255,-2.462379 2.585255,-4.699219 z"
     id="path4577"
     sodipodi:nodetypes="ccccsccsscsc" />
  <path
     inkscape:connector-curvature="0"
     style="opacity:1;fill:#3a2e31;fill-opacity:1;fill-rule:evenodd;stroke:none;stroke-width:1.03534329;stroke-linecap:round;stroke-linejoin:bevel;stroke-miterlimit:4;stroke-dasharray:none;stroke-dashoffset:0;stroke-opacity:1"
     d="m 27.516307,29.22461 c -1.480938,-0.0687 -2.855,-0.125 -5.817089,-0.125 -0.832677,0 -2.348919,0.278448 -3.861328,0.167969 -0.756205,-0.05524 -1.510889,-0.206856 -2.179687,-0.541016 -0.668799,-0.33416 -1.250324,-0.850244 -1.660157,-1.630859 C 13.360527,25.859646 12.461885,24.746354 11.486327,23.88086 10.51077,23.015366 9.457584,22.397638 8.507812,22.150391 8.104484,22.046323 7.774382,21.87082 7.503906,21.636719 7.23343,21.402619 7.023766,21.109648 6.859374,20.771485 6.530591,20.095158 6.385365,19.237543 6.320312,18.300782 6.281282,17.806377 6.153429,17.431772 5.966796,17.128907 5.780164,16.826042 5.535283,16.594506 5.263671,16.384766 4.720448,15.965288 4.069911,15.63356 3.562499,14.996094 3.166286,14.478768 2.854316,13.940179 2.542968,13.478516 2.345107,13.18513 2.116539,13.014348 1.898437,12.808594 v 11.716797 c 0,3.088651 2.487521,5.576172 5.576172,5.576172 h 17.052734 c 1.068656,0 2.318724,-0.385451 2.988964,-0.876953 z"
     id="path4572"
     sodipodi:nodetypes="cssscscccccccscsssc" />
</svg>

<svg xmlns="http://www.w3.org/2000/svg" height="32" width="32"><rect width="28.203" height="28.203" x="1.898" y="1.898" ry="5.575" fill="#834366" fill-rule="evenodd"/><path d="M7.475 1.898a5.563 5.563 0 0 0-5.577 5.575v5.336c.219.205.447.376.645.67.311.461.623 1 1.02 1.517.507.638 1.157.97 1.7 1.389.272.21.517.441.704.744.186.303.314.677.353 1.172.065.937.21 1.794.54 2.47.092.19.237.328.36.487h22.882V7.473a5.561 5.561 0 0 0-5.575-5.575z" fill="#834366" fill-rule="evenodd"/><circle r="8.5" cx="12.934" cy="19.52" class="st11" fill="#ff87a3"/><path d="M30.102 21.258H7.22c.096.124.164.276.283.379.27.234.6.41 1.004.513.95.248 2.003.865 2.978 1.73a11.309 11.309 0 0 1 2.512 3.216c.41.78.991 1.296 1.66 1.63.669.335 1.424.486 2.18.542 1.512.11 3.029-.168 3.861-.168 2.962 0 4.336.056 5.817.125 1.3-.752 2.586-2.463 2.586-4.7z" fill="#db4b73" fill-rule="evenodd"/><path d="M27.516 29.225c-1.48-.07-2.855-.125-5.817-.125-.832 0-2.349.278-3.861.168-.756-.056-1.511-.207-2.18-.541a3.699 3.699 0 0 1-1.66-1.631 11.309 11.309 0 0 0-2.512-3.215c-.975-.866-2.028-1.483-2.978-1.73a2.434 2.434 0 0 1-1.004-.514 2.662 2.662 0 0 1-.645-.866c-.328-.676-.474-1.533-.539-2.47-.039-.495-.167-.87-.353-1.172-.187-.303-.432-.534-.703-.744-.544-.42-1.194-.751-1.702-1.389-.396-.517-.708-1.056-1.019-1.517-.198-.294-.426-.465-.645-.67v11.716a5.565 5.565 0 0 0 5.577 5.577h17.052c1.069 0 2.32-.386 2.99-.877z" fill="#3a2e31" fill-rule="evenodd"/></svg>
